X: 2031
T: Yıllar Sonra Bir Gün
C: Cahit Deniz
O: Turkey
F: http://compmusic.upf.edu/node/140
N: ussak--sarki--nimsofyan--yillar_sonra--cahit_deniz
N: makam= ussak
N: form= sarki
N: usul= nimsofyan = 2/4
M: 2/4
L: 1/16
K: C _2/4B   
Q: 1/4=68
%%MIDI tuningsystem comma53
e2fe g{a}gfe  | e2c2 B2A2  | e2fe g{a}gfe  | \
w:  ARANAĞME  |   |   | 
e2c2 d2e2  | 
w:   | 
z2ff f2e2  | e2d2 {e}d2c2  | c2B2 d{e}dcB  | \
w:   |   |   | 
A4 (3cBAB2  | z2ff f2e2  | 
w:   |   | 
e2d2 {e}d2c2  | c2B2 d{e}dcB  | A8  | G2A2 A2G2  | \
w:   |   |   |  Yıl lar  son ra   | 
d3/2f/ed d4  | cc2B BB2A  | 
w:  bir  *  *  *  gün   |  a dım  *  a nıl  | 
A3d cBA2  | cd4-ddd  | d2e2 c4  | ef2e g3f  | \
w:  mış   SAZ  |  Ha tır la ma  |  mış *  sın   |  gü cen *  dim  sa  | 
e2c2 d2e2  | 
w:  na   SAZ  | 
ff2f f4  | g3a agfe  | e2ed e2dc  | c4 cde2  | \
w:  De mek  *  ki   |  ma zi den   |  bir  şey  *  kal *  ma  |  mış   SAZ  | 
f3e d2z2  | 
w:  Kim di  o   | 
ed2c c4  | Bc2B d3B  | A3d cBA2  | G2A2 A2G2  | \
w:  de miş *  sin   |  gü cen *  dim  sa  |  na   SAZ  |  Yıl lar  son ra   | 
d3/2f/ed d4  | 
w:  bir  *  *  *  gün   | 
cc2B BB2A  | A3d cBA2  | cd4-ddd  | d2e2 c4  | \
w:  a dım  *  a nıl  |  mış   SAZ  |  Ha tır la ma  |  mış *  sın   | 
ef2e g3f  | 
w:  gü cen *  dim  sa  | 
e2c2 d2e2  | ff2f f4  | g3a agfe  | e2ed e2dc  | \
w:  na   SAZ  |  De mek  *  ki   |  ma zi den   |  bir  şey  *  kal *  ma  | 
c4 cde2  | 
w:  mış   SAZ  | 
f3e d2z2  | ed2c c4  | Bc2B d3B  | A8  | z2f2 e2d2  | \
w:  Kim di  o   |  de miş *  sin   |  gü cen *  dim  sa  |  na    |  SAZ  | 
e2dc c4  | 
w:   | 
c2B2 d2cB  | A2Ac de^3/4fg  | a2ga a4  | \
w:   |   |  *  Sa na  kin   | 
a2ab g4  | a2ag ^3/4fefg  | 
w:  *  tu ta mam   |  laf  söy *  *  *  le ye  | 
a4 abc'2  | c'c'2c' c'2c'b  | c'2d'2 c'2b2  | \
w:  mem   SAZ  |  Na sıl  *  *  u nu  |  tur *  sun   | 
d'd'2c' c'bba  | 
w:  na sıl  *  *  *  di ye  | 
a4 ^3/4fga2  | ga2a _b4  | a3/2g/gf f4  | \
w:  mem   SAZ  |  Be nim *  ki   |  yal *  nız *  ca   | 
ef3 a3f  | e2ed cde2  | 
w:  kü çük  bir  si  |  tem   SAZ  | 
ff2e e2ed  | e3/2d/dc c4  | Bc2B d3B  | A8  | \
w:  Kı rıl *  dım   |  bir  *  ta *  nem   |  gü cen *  dim  sa  |  na    | 
ef2e g3f  | 
w:  Gü cen *  dim  sa  | 
e2c2 B2A2  | ef2e g3f  | e2c2 d2e2  | ff2e e2ed  | \
w:  na  SAZ  |  gü cen *  dim  sa  |  na   SAZ  |  Kı rıl *  dım   | 
e3/2d/dc c4  | 
w:  bir  *  ta *  nem   | 
Bc2B d3B  | A8  | e2fe g{a}gfe  | e2c2 B2A2  | \
w:  gü cen *  dim  sa  |  na    |  ARANAĞME  |   | 
e2fe g{a}gfe  | 
w:   | 
e2c2 d2e2  | z2ff f2e2  | e2d2 {e}d2c2  | \
w:   |   |   | 
c2B2 d{e}dcB  | A4 (3cBAB2  | 
w:   |   | 
z2ff f2e2  | e2d2 {e}d2c2  | c2B2 d{e}dcB  | A8  | \
w:   |   |   |   | 
G2A2 A4  | d3/2f/ed d4  | 
w:  Yıl lar dır   |  var *  *  lı ğın   | 
c3B B2BA  | A3d cBA2  | cd3 d3d  | ec7  | e3f ggfe  | 
w:  tek  te sel lim  |  di   SAZ  |  Se nin  mut lu  |  lu ğun   |  san ki  be nim  | 
e2c2 d2e2  | ff2f f4  | ga3 agfe  | ee2d e3/2d/dc  | 
w:  di   SAZ  |  Ta nın *  maz   |  bi lin mez   |  mi  ol *  duk  *  şim  | 
c4 cde2  | f3e d2z2  | ed2c c4  | Bc2B d3B  | \
w:  di   SAZ  |  Ner de  o   |  de miş *  sin   |  gü cen *  dim  sa  | 
A3d cBA2  | 
w:  na   SAZ  | 
G2A2 A4  | d3/2f/ed d4  | c3B B2BA  | A3d cBA2  | \
w:  Yıl lar dır   |  var *  *  lı ğın   |  tek  te sel lim  |  di   SAZ  | 
cd3 d3d  | 
w:  Se nin  mut lu  | 
ec7  | e3f ggfe  | e2c2 d2e2  | ff2f f4  | \
w:  lu ğun   |  san ki  be nim  |  di   SAZ  |  Ta nın *  maz   | 
ga3 agfe  | 
w:  bi lin mez   | 
ee2d e3/2d/dc  | c4 cde2  | f3e d2z2  | \
w:  mi  ol *  duk  *  şim  |  di   SAZ  |  Ner de  o   | 
ed2c c4  | Bc2B d3B  | 
w:  de miş *  sin   |  gü cen *  dim  sa  | 
A8  | z2f2 e2d2  | e2dc c4  | c2B2 d2cB  | \
w:  na    |  SAZ  |   |   | 
A2Ac de^3/4fg  | 
w:   | 
a2ga a4  | a2ab g4  | a2ag ^3/4fefg  | a4 abc'2  | \
w:  *  Sa na  kin   |  *  tu ta mam   |  laf  söy *  *  *  le ye  |  mem   SAZ  | 
c'c'2c' c'2c'b  | 
w:  Na sıl  *  *  u nu  | 
c'2d'2 c'2b2  | d'd'2c' c'bba  | a4 ^3/4fga2  | \
w:  tur *  sun   |  na sıl  *  *  *  di ye  |  mem   SAZ  | 
ga2a _b4  | a3/2g/gf f4  | 
w:  Be nim *  ki   |  yal *  nız *  ca   | 
ef3 a3f  | e2ed cde2  | ff2e e2ed  | e3/2d/dc c4  | 
w:  kü çük  bir  si  |  tem   SAZ  |  Kı rıl *  dım   |  bir  *  ta *  nem   | 
Bc2B d3B  | A8  | ef2e g3f  | e2c2 B2A2  | \
w:  gü cen *  dim  sa  |  na    |  Gü cen *  dim  sa  |  na  SAZ  | 
ef2e g3f  | e2c2 d2e2  | 
w:  gü cen *  dim  sa  |  na   SAZ  | 
ff2e e2ed  | e3/2d/dc c4  | Bc2B d3B  | A8  | |


